X:1
T:Beethoven Sonata Op. 31 No. 17 3rd Movement â€œTempestâ€ 
T:Beethoven 
%%score { ( 1 6 ) | ( 2 3 4 5 ) }
L:1/8
Q:1/4=104
M:3/8
K:F
V:1 treble nm="Piano"
V:6 treble 
V:2 bass 
V:3 bass 
V:4 bass 
V:5 bass 
V:1
!p!"^Allegretto" (A/f/e/ |: !wedge!.d) z/ (A/f/e/ | !wedge!.d) z/ (A/f/e/ | !wedge!.d) z/ (A/f/d/ | %4
 !wedge!.e) z/ (A/g/f/ | !wedge!.e) z/ (A/g/f/ | !wedge!.e) z/ (A/g/f/ | !wedge!.e) z/ (A/g/e/ | %8
 !wedge!.f) z/ (d/a/d'/ | !wedge!.b) z/ (B/d/b/ | !wedge!.g) z/ (G/B/g/ | !wedge!.=e) z/ (E/A/e/ | %12
 !wedge!.f) z/ (F/A/f/ |!p! !wedge!.d) z/ (D/A/d/ | !wedge!.^c) z/ (^C/A/c/ | %15
!f! !wedge!.d) z F/A/ | d/f/a/f/d'/a/ |!p! !wedge!.b z/ (B/d/b/ | !wedge!.g) z/ (G/B/g/ | %19
 !wedge!.=e) z/ (E/A/e/ | !wedge!.f) z/ (F/A/f/ |!p! !wedge!.d) z/ (D/A/d/ | %22
 !wedge!.^c) z/ (^C/A/c/ |!f! !wedge!.d/) z/4 A/4 (a2 |!>(! ^g/=g/^f/=f/e/!>)!_e/ | %25
!p! !wedge!.d) z/ (D/A/d/ | !wedge!.^c) z/ (^C/A/c/ |!f! !wedge!.d/) z/4 d/4 (d'2 | %28
!>(! ^c'/=c'/=b/_b/a/!>)!^g/ |!p! !wedge!.a) z/ (D/A/d/ | !wedge!.^c) z/!f! (c/a/^c'/ | %31
 !wedge!.d'/)[I:staff +1] (D,/F,/A,/ !wedge!.D) |[I:staff -1] x3 | x3 | %34
[I:staff +1] D,/F,/=B,/D/[I:staff -1]F/=B/ | C/c/E/e/G/g/ | c/c'/e/e'/c/c'/ | G/g/E/e/G/g/ | %38
 E/e/C/c/ z | x3 | x3 | x3 |[I:staff +1] [D,A,]/D/[D,A,]/D/[^D,A,]/^D/ | %43
 [^G,E]!f![I:staff -1] (Pfe) | (Pfe) (Pf | e) (Pfe) | (Pfe) (Pf | e) f2- | f!wedge!.e!wedge!.d | %49
!p! (Pc=B)!wedge!.A | !wedge!.^G!wedge!.A!wedge!.=B | !wedge!.A!f! f/f'/e/e'/ | f/f'/e/e'/f/f'/ | %53
 e/e'/f/f'/e/e'/ | f/f'/e/e'/f/f'/ | !wedge!.[ee'] [ff']2- | [ff']!wedge!.[ee']!wedge!.[dd'] | %57
!p! !wedge!.[cc']!wedge!.[=B=b]!wedge!.[Aa] | !wedge!.[^G^g]!wedge!.[Aa]!wedge!.[=B=b] | %59
 ([Aa][ff'])!wedge!.[ff'] | !wedge!.[ff']!wedge!.[ee']!wedge!.[dd'] | %61
 !wedge!.[cc']!wedge!.[=B=b]!wedge!.[Aa] | !wedge!.[^G^g]!wedge!.[Aa]!wedge!.[=B=b] | %63
!f! ([Aa][ff'])!wedge!.[ff'] | !wedge!.[ff']!wedge!.[ee']!wedge!.[dd'] | %65
 !wedge!.[cc']!wedge!.[=B=b]!wedge!.[Aa] | !wedge!.[^G^g]!wedge!.[Aa]!wedge!.[=B=b] | %67
!p! !wedge!.[Aa] z (A/a/ | !wedge!.c) z (c/c'/ | e) z (e/e'/ | !wedge!.c) z (c/c'/) | z a2- | %72
 (a=b)!wedge!.^g |!p! [Aa] z/ (A/a/A/ | !wedge!.c) z/ (c/c'/c/ | !wedge!.e) z/ (e/e'/e/ | %76
 !wedge!.c) z/ (c/c'/c/) | z a2- | (a=b)!wedge!.^g |!<(! ([Aa][=B=b]!<)![^c^c'] | %80
!>(! [dd'][=c=c']!>)![=B=b]) | ([cc'][^G^g][Aa]) | ([=B=b][^F^f][^G^g]) | %83
!<(! A/a/=B/=b/^c/!<)!^c'/ |!>(! d/d'/=c/=c'/=B/!>)!=b/ | c/c'/^G/^g/A/a/ | =B/=b/^F/^f/^G/^g/ | %87
 A/a/^G/A/a/A/ | ^G/A/a/A/G/A/ | a/A/^G/A/a/A/ | ^G/A/a/A/G/A/ |!p! _B/A/B/A/B/A/ | B/A/B/A/B/A/ | %93
 (B/A/B/A/^c/A/ | d/A/e/A/f/e/ :|!p! !wedge!._e) z/ (e/a/b/ | !wedge!.c') z/ (_e/a/b/ | %97
 !wedge!.c') z/ (_e/a/b/ | !wedge!.c') z/ (d/c'/a/ |!f! !wedge!.b)[K:bass] z/ (B,,/D,/G,/ | %100
 !wedge!.B,)[K:treble] z/ (B,/D/G/ | !wedge!.B) z/ (B/d/g/ | !wedge!.b) z/ (f/=b/c'/ | %103
!p! !wedge!.d') z/ (f/=b/c'/ | !wedge!.d') z/ (f/=b/c'/ | !wedge!.d') z/ (f/=b/c'/ | %106
 !wedge!.d') z/ (e/d'/=b/ |!f! !wedge!.c')[K:bass] z/ (C,/E,/A,/ | %108
 !wedge!.C)[K:treble] z/ (C/E/A/ | !wedge!.c) z/ (c/e/a/ | !wedge!.c') z z | %111
 z/ (B,/E/G/!wedge!.B) | z/ (^C/G/B/!wedge!.^c) | z/ (B/^c/e/!wedge!.g) | z/ (e/b/a/) z | %115
 z/ (D/F/A/!wedge!.d) | z/ (F/A/d/!wedge!.f) | z/ (A/d/f/!wedge!.a) | z z/ (_a/d/_e/ | %119
 !wedge!.f) z/ (f/=B/c/ | !wedge!.d) z/ (d/F/G/ | !wedge!._A) z/ (A/D/_E/ | !wedge!.F) z/ (g/c/d/ | %123
 !wedge!._e) z/ (e/G/=B/ | !wedge!.c) z/ (c/_E/F/ | !wedge!.G) z/ (G/C/D/ | _E/C/G,/) z/ z | %127
 z/ (_G,/C/_E/!wedge!._G) | z/ (A,/_E/_G/!wedge!.A) | z/ (_G/A/c/!wedge!._e) | z/ (c/_g/f/) z | %131
 z/ (_D/F/B/!wedge!._d) | z/ (F/B/_d/!wedge!.f) | z/ (B/_d/f/!wedge!.b) | z z/ (f'/b/c'/ | %135
 !wedge!._d') z/ (d'/_g/_a/ | !wedge!.b) z/ (b/_d/f/ | !wedge!._g) z/ (g/B/c/ | %138
 !wedge!._d) z/ (f'/b/c'/ | !wedge!._d') z/ (d'/f/=a/ | !wedge!.b) z/ (b/_d/_e/ | %141
 !wedge!.f) z/ (f/B/c/ | !wedge!._d) z/ (_d'/b/c'/ | !wedge!._d') z/ (_d/B/c/ | %144
 !wedge!._d) z/ (_d'/b/c'/ | !wedge!._d') z/ (_d/B/c/ | _d) z/!f! (c'/_a/b/ | %147
 !wedge!.c') z/ (c/_A/B/ | !wedge!.c) z/!ff! (_e'/c'/_d'/ | !wedge!._e') z/ (_e/c/_d/ | %150
 !wedge!._e) z/!p! (F/_d/c/ | !wedge!.B) z/ (F/_d/c/ | !wedge!.B) z/ (F/_d/c/ | %153
 !wedge!.B) z/ (F/_d/B/ | !wedge!.c) z/ (F/_e/_d/ | !wedge!.c) z/ (F/_e/_d/ | %156
 !wedge!.c) z/ (F/_e/_d/ | !wedge!.c) z/ (F/_e/c/ | !wedge!._d) z/ (F/d/f/) | z z/ (F/_d/f/) | %160
 z z/ (F/_d/f/) | z z/ (_G/_d/_g/) | z z/ (_G/_d/_g/) | z z/ (=G/_d/=g/) | z z/ (G/_d/g/) | %165
 z z/ (^G/=d/^g/) | z z/ (^G/d/^g/) | z z/ (^G/d/^g/) | z z/ (^G/d/^g/ | a) z (a | ^g) z (g | %171
 a) z (a | ^g) z (g |!p! a) x2 | !wedge!_B z/ (B/^c/e/ | !wedge!.G) z/ (B/A/G/ | %176
 !wedge!.F) z/ (F/E/D/ | !wedge!.^C) z/ (^c/e/g/ | !wedge!.B) z/ (B/^c/e/ | !wedge!.G) z/ (B/A/G/ | %180
 !wedge!.F) z/ (F/E/D/) | !wedge!.^f z/ (f/a/=c'/ | !wedge!._e) z/ (e/^f/a/ | %183
 !wedge!.c) z/ (_e/d/c/ | !wedge!.B) z/ (B/A/G/ | !wedge!.^F) z/ (^f/a/c'/ | _e) z/ (e/^f/a/ | %187
 !wedge!.c) z/ (_e/d/c/ | !wedge!.B) z/ (B/A/G/ | !wedge!.b) z/ (b/a/g/ | !wedge!.=f) z/ (f/=e/d/ | %191
 !wedge!._e) z/ (e/d/c/ | !wedge!.B) z/ (B/A/G/ | !wedge!.b) z/ (b/a/g/ | !wedge!.=f) z/ (f/=e/d/ | %195
 !wedge!.b) z/ (b/a/g/ | !wedge!.f) z/ (f/e/d/ | !wedge!.b) z/ (b/a/g/ | !wedge!.f) z/ (f/e/d/) | %199
!f! (b/g/^f/g/b/g/ | ^f/g/b/g/f/g/) | (^d/e/g/e/d/e/ | g/e/^d/e/g/e/) | (^B/^c/e/c/B/c/ | %204
 e/^c/^B/c/e/c/) | (A/_B/^c/B/A/B/ | ^c/B/A/B/c/B/) | (^F/G/B/G/F/G/ | B/G/^F/G/B/G/) | %209
 (^F/G/B/G/F/G/ | B/G/^F/G/B/G/) |!p! (^F/G/B/G/F/G/ | B/^c/B/G/^F/G/ | B/^c/e/!pp!G/^F/G/ | %214
 B/^c/e/A/=f/e/ |!p! !wedge!.d) z/ (A/f/e/ | !wedge!.d) z/ (A/f/e/ | !wedge!.d) z/ (A/f/d/ | %218
 !wedge!.e) z/ (A/g/f/ | !wedge!.e) z/ (A/g/f/ | !wedge!.e) z/ (A/g/f/ | !wedge!.e) z/ (A/g/e/ | %222
 !wedge!.f) z/ (d/a/d'/ | !wedge!.b) z/ (B/d/b/ | !wedge!.g) z/ (G/B/g/ | !wedge!.=e) z/ (E/A/e/ | %226
 !wedge!.f) z/ (F/A/f/ |!p! !wedge!.d) z/ (D/A/d/ | !wedge!.^c) z/ (^C/A/c/ | %229
!f! !wedge!.d) z F/A/ | d/f/a/f/d'/a/ |!p! !wedge!.b z/ (B/d/b/ | !wedge!.g) z/ (G/B/g/ | %233
 !wedge!._e) z/ (_E/G/e/ | !wedge!.c) z/ (C/F/c/ |!p! !wedge!.d) z/ (D/F/d/ | %236
 !wedge!._e) z/ (_E/G/e/ | !wedge!.c) z/!f! (C/A/c/ | !wedge!.f) z/ (F/B/f/ | %239
!p! !wedge!.d) z/ (D/B/d/ | !wedge!._e) z/ (_E/G/e/ | !wedge!.c) z/ (C/A/c/ | !wedge!.B) z z | %243
!f! z/[I:staff +1] B,,/_D,/F,/ !wedge!.B, |[I:staff -1] z/[I:staff +1] B,,/_D,/F,/ !wedge!.B, | %245
[I:staff -1] z/[I:staff +1] B,,/_D,/F,/ !wedge!.B, | G,,/B,,/=E,/G,/B,/[I:staff -1]E/ | %247
[I:staff +1] F,/[I:staff -1]F/[I:staff +1]_A,/[I:staff -1]_A/[I:staff +1]C/[I:staff -1]c/ | %248
 F/f/_A/_a/F/f/ | C/c/_A,/_A/C/c/ | _A,/_A/F,/F/ z | %251
 z/[I:staff +1] (F,/_A,/C/[I:staff -1] !wedge!.F) | %252
 z/[I:staff +1] (F,/_A,/C/[I:staff -1] !wedge!.F) | %253
 z/[I:staff +1] (F,/_A,/C/[I:staff -1] !wedge!.F) |[I:staff +1] D,/F,/=B,/D/[I:staff -1]F/=B/ | %255
 C/c/_E/_e/G/g/ | c/c'/_e/_e'/c/c'/ | G/g/_E/_e/G/g/ | _E/_e/C/c/ z | %259
 z/[I:staff +1] (C,/_E,/G,/ !wedge!.C) |[I:staff -1] z/[I:staff +1] (C,/_E,/G,/ !wedge!.C) | %261
[I:staff -1] z/[I:staff +1] (C,/_E,/G,/ !wedge!.C) | A,,/C,/^F,/A,/[I:staff -1]C/^F/ | %263
!f![I:staff +1] G,/[I:staff -1]G/[I:staff +1]_B,/[I:staff -1]_B/D/d/ | G/g/B/b/G/g/ | %265
 D/d/B,/B/D/d/ | B,/B/G,/G/ z | z/[I:staff +1] (D,/G,/B,/ !wedge!.D) | %268
[I:staff -1] z/[I:staff +1] (D,/G,/B,/ !wedge!.D) | %269
[I:staff -1] z/[I:staff +1] (D,/G,/B,/ !wedge!.D) | [D,^G,]/D/[D,G,]/D/[D,G,]/D/ | %271
 [E,A,^C]!f![I:staff -1] (PBA) | (PBA) (PB | A) (PBA) | (PBA) (PB | A) B2- | B!wedge!.A!wedge!.G | %277
!p! (PFE)!wedge!.D | !wedge!.^C!wedge!.D!wedge!.E | D!f! B/b/A/a/ | B/b/A/a/B/b/ | A/a/B/b/A/a/ | %282
 B/b/A/a/B/b/ | [Aa] [Bb]2- | [Bb]!wedge!.[Aa]!wedge!.[Gg] | %285
!p! !wedge!.[Ff]!wedge!.[Ee]!wedge!.[Dd] | !wedge!.[^C^c]!wedge!.[Dd]!wedge!.[Ee] | %287
 ([Dd][Bb])!wedge!.[Bb] | !wedge!.[Bb]!wedge!.[Aa]!wedge!.[Gg] | %289
 !wedge!.[Ff]!wedge!.[=E=e]!wedge!.[Dd] | !wedge!.[^C^c]!wedge!.[Dd]!wedge!.[Ee] | %291
!f! ([Dd][Bb])!wedge!.[Bb] | !wedge!.[Bb]!wedge!.[Aa]!wedge!.[Gg] | %293
 !wedge!.[Ff]!wedge!.[Ee]!wedge!.[Dd] | !wedge!.[^C^c]!wedge!.[Dd]!wedge!.[Ee] |!p! [Dd] z (D/d/ | %296
 !wedge!.F) z (F/f/ | !wedge!.A) z (A/a/ | !wedge!.F) z (F/f/) | z d2- | de^c | %301
!p! [Dd] z/ (D/d/D/ | !wedge!.F) z/ (F/f/F/ | !wedge!.A) z/ (A/a/A/ | !wedge!F) z/ (F/f/F/) | %305
 z d2- | de^c |!<(! [Dd] e!<)!^f |!>(! g=f!>)!e | [fd'][^c^c'][dd'] | [ee'][=B=b][^c^c'] | %311
 d/d'/e/d'/^f/d'/ | g/d'/=f/d'/e/d'/ | f/d'/^c/^c'/d/d'/ | e/e'/=B/=b/^c/^c'/ | d/d'/^c/d/d'/d/ | %316
 ^c/d/d'/d/c/d/ | d'/d/^c/d/d'/d/ | ^c/d/d'/d/c/d/ |!p! _e/d/e/d/e/d/ | _e/d/e/d/e/d/ | %321
 _e/d/e/d/e/d/ | _e/d/e/(e/a/_b/ | !wedge!.c') z/ (_e/a/b/ | !wedge!.c') z/ (_e/a/b/ | %325
 !wedge!.c') z/ (_e/a/b/ | !wedge!.c') z/ (d/c'/a/ | !wedge!.b) z/ (G/B/d/) | z z/ (G/B/^c/) | %329
 z z/ (G/B/d/) | z z/ (G/B/e/) | z z/!p! (=f/=b/^c'/ | !wedge!.d') z/ (f/=b/^c'/ | %333
 !wedge!.d') z/ (f/=b/^c'/ | !wedge!.d') z/ (e/d'/=b/ | !wedge!.^c') z/ (A/^c/e/) | %336
 z z/ (A/^c/^d/) | z z/ (A/^c/e/) | z z/ (A/^c/^f/) | z z/ (A/^c/g/) | z z/ (A/^c/^f/) | %341
 z z/ (A/^c/g/) | z z/ (A/^c/=f/) | z z/ (A/^c/e/) | z z/ (A/^c/^d/) | z z/ (A/^c/e/) | %346
 z z/ (A/^c/^f/) | z z/ (A/^c/g/) | z z/ (A/^c/g/) | z z/!pp! (A/^c/g/) | z z/!ff! (A/=f/e/ | %351
 d) z/ (A/f/e/ | d) z/ (A/f/e/ | d) z/ (A/f/d/ | e) z/ (A/g/f/ | e) z/ (A/g/f/ | e) z/ (A/g/f/ | %357
 e) z/ (A/g/e/ | f) z/!p! (d/a/d'/ | !wedge!.b) z/ (B/d/b/ | !wedge!.g) z/ (G/B/g/ | %361
 !wedge!.=e) z/ (E/A/e/ | !wedge!.f) z/ (F/A/f/ |!p! !wedge!.d) z/ D/A/d/ | !wedge!^c z/ ^C/A/c/ | %365
!f! !wedge!.d z F/A/ | d/f/a/f/d'/a/ |!p! !wedge!.b z/ (B/d/b/ | !wedge!.g) z/ (G/B/g/ | %369
 !wedge!.=e) z/ (E/A/e/ | !wedge!.f) z/ (F/A/f/ |!p! !wedge!.d) z/ D/A/d/ | !wedge!^c z/ ^C/A/c/ | %373
!f! !wedge!.d/ z/4 A/4 (a2 |!>(! ^g/=g/^f/=f/e/!>)!_e/ |!p! !wedge!.d) z/ D/A/d/ | %376
 !wedge!^c z/ ^C/A/c/ |!f! !wedge!.d/ z/4 d/4 (d'2 |!>(! ^c'/=c'/=b/_b/a/!>)!^g/ | %379
!p! !wedge!.a) z/ D/A/d/ | !wedge!^c z/ ^C/A/c/ | !wedge!.d/ z/4 d/4!ff! f'2- | %382
 (f'/e'/_e'/d'/^c'/=c'/ | (3=b/_b/a/(3^g/=g/^f/=f/4=e/4_e/4d/4) | x z x |!p! !wedge!.d z/ (A/f/d/ | %386
 !wedge!.^c) z/ (A/e/c/ | !wedge!.d) z/ (a/f'/d'/ | !wedge!.^c') z/ (a/e'/c'/ | %389
 !wedge!.d') z/ (A/f/d/ | ^c) z/ (A/e/c/ | !wedge!.d) z/ (a/f'/d'/ | !wedge!.^c') z/ (a/e'/c'/ | %393
 !wedge!.d') z/ (f'/a/d'/ | !wedge!.f) z/ (d'/f/a/ | !wedge!.d) z/ (a/d/f/ | %396
 !wedge!.A) z/ (f/A/d/ |!p! !wedge!.F/)d/A/F/D/A,/ | %398
[I:staff +1] F,/D/A,/F,/(3D,/[I:staff -1] z/ z/ |[Q:1/4=20]"^20" z (1:2:1z/ |] %400
V:2
 z z/ |:!ped! D,/A,/D/F/ x | D,/A,/D/F/ x | D,/A,/D/F/ x!ped-up! |!ped! A,,/A,/^C/E/ x | %5
 A,,/A,/^C/E/ x | A,,/A,/^C/E/ x | A,,/A,/^C/E/ x!ped-up! |!ped! D,/A,/D/F/ x!ped-up! | %9
!ped! (G,/D/- [DG]2)!ped-up! |!ped! (_E,/B,/- [B,_E]2)!ped-up! |!ped! (^C,/A,/- [A,^C]2)!ped-up! | %12
!ped! (D,/A,/- [A,D]2)!ped-up! |!ped! (A,,/F,/- [F,A,]2)!ped-up! |!ped! A,,/E,/G,/A,/- A,!ped-up! | %15
!ped! D,,/D,/F,/A,/ D | z3!ped-up! |!ped! (G,/D/- [DG]2)!ped-up! | %18
!ped! (_E,/B,/- [B,_E]2)!ped-up! |!ped! (^C,/A,/- [A,^C]2)!ped-up! | %20
!ped! (D,/A,/- [A,D]2)!ped-up! |!ped! (A,,/F,/- [F,A,]2)!ped-up! |!ped! A,,/E,/G,/A,/- A,!ped-up! | %23
!ped! D,/F,/A,/D/ z | z3!ped-up! |!ped! (A,,/F,/- [F,A,]2)!ped-up! | %26
!ped! A,,/E,/G,/A,/- A,!ped-up! |!ped! D,/F,/A,/D/ z | z3!ped-up! | %29
!ped! (A,,/F,/- [F,A,]2)!ped-up! |!ped! (A,,/E,/G,/)!ped-up!!f! (A,,,/F,,/E,,/ | %31
 D,,) z/ (A,,,/F,,/E,,/ | D,,) z/ (A,,,/F,,/E,,/ | D,,) z/ (A,,,/F,,/D,,/ | %34
!ped! [G,,,G,,]3)!ped-up! |!ped! !wedge!.[C,,C,]!wedge!.E,!wedge!.G, | %36
 !wedge!.C!wedge!.E!wedge!.C | !wedge!.G,!wedge!.E,!wedge!.G, | %38
 !wedge!.E,!ped-up! !wedge!.C,/ (G,,,/E,,/D,,/ | C,,) z/ (G,,,/E,,/D,,/ | C,,) z/ (G,,,/E,,/D,,/ | %41
 C,,) z/ (G,,,/E,,/C,,/) | [F,,,F,,]3 | [E,,E,]!ped! [=B,=D]/E/^G,/E/ | [=B,D]/E/^G,/E/[B,D]/E/ | %45
 ^G,/E/[=B,D]/E/G,/E/ | [=B,D]/E/^G,/E/[B,D]/E/ | ^G,/E/[=B,D]/E/G,/E/ | %48
 [=B,D]/E/^G,/E/[B,D]/E/!ped-up! |!ped! A,/E/C/E/A,/E/!ped-up! |!ped! E,/D/=B,/D/E,/D/!ped-up! | %51
 [A,C]/E/!ped![=B,D]/E/^G,/E/ | [=B,D]/E/^G,/E/[B,D]/E/ | ^G,/E/[=B,D]/E/G,/E/ | %54
 [=B,D]/E/^G,/E/[B,D]/E/ | ^G,/E/[=B,D]/E/G,/E/ | [=B,D]/E/^G,/E/[B,D]/E/!ped-up! | %57
!ped! A,/E/C/E/A,/E/!ped-up! |!ped! E,/D/=B,/D/E,/D/!ped-up! |!ped! F,/C/A,/C/F,/C/!ped-up! | %60
!ped! D,/_B,/F,/B,/D,/B,/!ped-up! |!ped! E,/C/A,/C/E,/C/!ped-up! | %62
!ped! D,/=B,/E,/B,/D,/B,/!ped-up! | C,/A,/=B,,/A,/C,/A,/ | D,/[A,=B,]/C,/[A,B,]/D,/[A,B,]/ | %65
 E,/[A,C]/^D,/[A,C]/E,/[A,C]/ | E,/[=B,=D]/E,/[A,C]/E,/[^G,B,]/ |!ped! A,,/ C/A,/C/E,/C/ | %68
 A,,/ C/A,/C/E,/C/ | A,,/ C/A,/C/E,/C/ | A,,/ C/A,/C/E,/C/!ped-up! | %71
!ped! E,,/ C/A,/C/E,/C/!ped-up! |!ped! E,,/ D/=B,/D/E,/D/!ped-up! |!ped! A,,/ C/A,/C/E,/C/ | %74
 A,,/ C/A,/C/E,/C/ | A,,/ C/A,/C/E,/C/ | A,,/ C/A,/C/E,/C/!ped-up! | %77
!ped! E,,/ C/A,/C/E,/C/!ped-up! |!ped! E,,/ D/=B,/D/E,/D/!ped-up! | A,,/ A,/^G,/A,/=G,/A,/ | %80
 F,/A,/E,/A,/^D,/A,/ | E,/A,/=B,/E,/C/E,/ | D/E,/C/E,/=B,/E,/ | A,,/ A,/^G,/A,/=G,/A,/ | %84
 F,/A,/E,/A,/^D,/A,/ | E,/A,/F/E,/E/E,/ | D/E,/C/E,/=B,/E,/ | A,,/A,/^G,/A,/A,,/A,/ | %88
 ^G,/A,/A,,/A,/G,/A,/ | A,,/A,/^G,/A,/A,,/A,/ | ^G,/A,/A,,/A,/G,/A,/ | [^CE=G] z z | z3 | z3 | %94
 z3 :|[K:treble]!ped! (^F/A/=c/) z/ z | (^F/A/c/) z/ z | (^F/A/c/) z/ z | (^F/A/c/) z/ z!ped-up! | %99
[K:bass]!ped! G,,,/B,,,/D,,/G,,/- G,, | G,,/B,,/D,/G,/- G, |[K:treble] G,/B,/D/G/- G | %102
 (G/B/d/!ped-up!c/=B/A/) |!ped! (^G/=B/d/) z/ z | (^G/=B/d/) z/ z | (^G/=B/d/) z/ z | %106
 (^G/=B/d/) z/ z!ped-up! |[K:bass]!ped! A,,,/C,,/E,,/A,,/- A,, | A,,/C,/E,/A,/- A, | %109
[K:treble] A,/C/E/A/- A- | A/!ped-up![K:bass] (A,,/_B,,/G,,/E,/D,/ | %111
!ped! !wedge!.^C,) z/ (C,/!ped-up!G,/F,/ |!ped! !wedge!.E,) z/ (E,/!ped-up!B,/A,/ | %113
!ped! !wedge!.G,) z/ (G,/!ped-up!E/D/ |!ped! !wedge!.^C) z/ (F,,/!ped-up!A,,/G,,/ | %115
!ped! !wedge!F,,) z/ (F,,/!ped-up!F,/E,/ |!ped! !wedge!.D,) z/ (D,/!ped-up!A,/G,/ | %117
!ped! !wedge!.F,)[K:treble] z/ (F,/!ped-up!F/E/ |!ped! D/F/_A/) z/ z!ped-up! | %119
[K:bass]!ped! z/ D,,/F,,/_A,,/=B,,!ped-up! |!ped! z/ (F,,/_A,,/=B,,/!wedge!.D,)!ped-up! | %121
!ped! z/ (=B,,/D,/F,/!wedge!._A,)!ped-up! | z/ _A,/G,/F,/_E,/D,/ | %123
!ped! C,/(_E,,/G,,/C,/) z!ped-up! |!ped! z/ (G,,/C,/_E,/) z!ped-up! | %125
!ped! z/ (C,/_E,/G,/) z!ped-up! |!ped! z z/ (C,,/C,/_B,,/!ped-up! | %127
!ped! !wedge!.=A,,) z/ (A,,/!ped-up!_E,/_D,/ |!ped! !wedge!.C,) z/ (C,/!ped-up!_G,/F,/ | %129
!ped! !wedge!._E,) z/ (E,/!ped-up!C/_B,/ |!ped! !wedge!A,) z/ (_D,,/!ped-up!_D,/C,/ | %131
!ped! !wedge!.B,,) z/ (B,,/!ped-up!F,/_E,/ |!ped! !wedge!._D,) z/ (D,/!ped-up!_D/C/ | %133
!ped! !wedge!.B,)[K:treble] z/ (B,/!ped-up!F/_E/ |!ped! _D/F/B/) z/ z!ped-up! | %135
[K:bass]!ped! z/ (_E,,/_G,,/B,,/) z | z/ _G,,/B,,/_E,/ z | z/ (B,,/_E,/_G,/) z | %138
 z/ (_E,/_G,/B,/) z!ped-up! |!ped! z/ F,,/B,,/_D,/ z | z/ (B,,/_D,/F,/) z | z/ (_D,/F,/B,/) z | %142
 z/ (F,/B,/_D/) z!ped-up! |!ped! z/ (_G,,/B,,/_D,/) z | z/ (_G,/B,/_D/) z!ped-up! | %145
!ped! z/ (=G,,/B,,/_E,/) z | z/ (=G,/B,/_E/) z!ped-up! |!ped! z/ (_A,,/C,/_E,/) z | %148
 z/ (_A,/C/_E/) z!ped-up! |!ped! z/ (=A,,/C,/F,/) z | z/ (=A,/C/)!ped-up! z/ z | %151
!p!!ped! B,,/F,/B,/_D/ x | B,,/F,/B,/_D/ x | B,,/F,/B,/_D/ x!ped-up! |!ped! F,,/F,/A,/C/ x | %155
 F,,/F,/A,/C/ x | F,,/F,/A,/C/ x | F,,/F,/A,/C/ x!ped-up! |!ped! B,,/F,/B,/_D/ x | %159
 B,,/F,/B,/_D/ x | B,,/F,/B,/_D/ x!ped-up! |!ped! B,,/_G,/B,/_D/ x | B,,/_G,/B,/_D/ x!ped-up! | %163
!ped! B,,/=G,/_D/=E/ x | B,,/=G,/_D/E/ x!ped-up! |!ped! B,,/^G,/=D/E/ x | B,,/^G,/D/E/ x | %167
 B,,/^G,/D/F/ x | B,,/^G,/D/F/ x!ped-up! |!ped! A,,/A,/^C/E/ x!ped-up! | %170
!ped! D,/A,/D/F/ x!ped-up! |!ped! A,,/A,/^C/E/ x!ped-up! |!ped! D,/A,/D/F/ x!ped-up! | %173
!ped! A,,/A,/^C/E/- E!ped-up! |!ped! (G,/A,/- [A,E]2)!ped-up! |!ped! (^C,/E,/- [E,A,]2)!ped-up! | %176
!ped! (D,/F,/- [F,A,]2)!ped-up! |!ped! A,,/A,/^C/E/- E!ped-up! |!ped! (G,/A,/- [A,E]2)!ped-up! | %179
!ped! (^C,/E,/- [E,A,]2)!ped-up! |!ped! (D,/F,/- [F,A,]2)!ped-up! | %181
!ped! D,/[K:treble] D/^F/A/- A!ped-up! |!ped! (C/D/- [DA]2)!ped-up! | %183
[K:bass]!ped! (F,/A,/- [A,_E]2)!ped-up! |!ped! (G,/B,/- [B,D]2)!ped-up! | %185
!ped! D,/[K:treble] D/^F/A/- A!ped-up! |!ped! (C/D/- [DA]2)!ped-up! | %187
[K:bass]!ped! (F,/A,/- [A,D]2)!ped-up! |!ped! (G,/B,/- [B,D]2)!ped-up! | %189
!ped! (C,/=E,/- [E,A,]2)!ped-up! |!ped! (D,/=F,/- [F,A,]2)!ped-up! | %191
!ped! (F,/A,/- [A,D]2)!ped-up! |!ped! (G,/B,/- [B,D]2)!ped-up! |!ped! (C,/=E,/- [E,A,]2)!ped-up! | %194
!ped! (D,/=F,/- [F,A,]2)!ped-up! |!ped! (C,/E,/- [E,A,]2)!ped-up! | %196
!ped! (D,/F,/- [F,A,]2)!ped-up! |!ped! (C,/E,/- [E,A,]2)!ped-up! |!ped! (D,/F,/- [F,A,]2)!ped-up! | %199
!ped! [A,,^C,E,G,] z z | z3 | z3 | z3 | z3 | z3 | z3 | z3 | z3 | z3 | z3 | z3!ped-up! |!ped! z3 | %212
 z3 | z3 | z3!ped-up! |!ped! D,/A,/D/F/ x | D,/A,/D/F/ x | D,/A,/D/F/ x!ped-up! | %218
!ped! A,,/A,/^C/E/ x | A,,/A,/^C/E/ x | A,,/A,/^C/E/ x | A,,/A,/^C/E/ x!ped-up! | %222
!ped! D,/A,/D/F/ x!ped-up! |!ped! (G,/D/- [DG]2)!ped-up! |!ped! (_E,/B,/- [B,_E]2)!ped-up! | %225
!ped! (^C,/A,/- [A,^C]2)!ped-up! |!ped! (D,/A,/- [A,D]2)!ped-up! | %227
!ped! (A,,/F,/- [F,A,]2)!ped-up! |!ped! A,,/E,/G,/A,/- A,!ped-up! |!ped! D,,/D,/F,/A,/ D | %230
 z3!ped-up! |!ped! (G,/D/- [DG]2)!ped-up! |!ped! (E,/B,/- [B,_E]2)!ped-up! | %233
!ped! (C,/G,/- [G,C]2)!ped-up! |!ped! (A,,/F,/- [F,A,]2)!ped-up! | %235
!ped! (B,,/F,/- [F,B,]2)!ped-up! |!ped! (E,,/C,/- [C,_E,]2)!ped-up! | %237
!ped! (F,,/C,/- [C,F,]2)!ped-up! |!ped! (D,,/B,,/- [B,,D,]2)!ped-up! | %239
!ped! (G,,/B,,/- [B,,G,]2)!ped-up! |!ped! (E,,/C,/- [C,_E,]2)!ped-up! | %241
!ped! (F,,/C,/- [C,F,]2)!ped-up! |!ped! (B,,,/F,,/B,,/)!ped-up!(F,,,/_D,,/C,,/ | %243
 !wedge!.B,,,) z/ (F,,,/_D,,/C,,/ | !wedge!.B,,,) z/ (F,,,/_D,,/C,,/ | %245
 !wedge!.B,,,) z/ (F,,,/_D,,/B,,,/ |!ped! C,,3)!ped-up! | %247
!ped! !wedge!.[F,,,F,,]!wedge!._A,,!wedge!.C, | !wedge!.F,!wedge!._A,!wedge!.F, | %249
 !wedge!.C,!wedge!._A,,!wedge!.C, | !wedge!._A,,!ped-up! F,,/ (C,,/A,,/G,,/ | %251
 !wedge!.F,,) z/ (C,,/_A,,/G,,/ | !wedge!.F,,) z/ (C,,/_A,,/G,,/ | %253
 !wedge!.F,,) z/ (C,,/_A,,/F,,/) |!ped! [G,,,G,,]3!ped-up! | %255
!ped! !wedge!.[C,,C,]!wedge!._E,!wedge!.G, | !wedge!.C!wedge!._E!wedge!.C | %257
 !wedge!.G,!wedge!._E,!wedge!.G, | !wedge!._E,!ped-up! !wedge!.C,/ (G,,,/_E,,/D,,/ | %259
 !wedge!.C,,) z/ (G,,,/_E,,/D,,/ | !wedge!.C,,) z/ (G,,,/_E,,/D,,/ | %261
 !wedge!.C,,) z/ (G,,,/_E,,/C,,/) |!ped! D,,3!ped-up! | %263
!ped! !wedge!.[G,,,G,,]!wedge!._B,,!wedge!.D, | !wedge!.G,!wedge!.B,!wedge!.G, | %265
 !wedge!.D,!wedge!.B,,!wedge!.D, | !wedge!.B,,!ped-up! !wedge!.G,,/ (D,,/B,,/A,,/ | %267
 !wedge!.G,,) z/ (D,,/B,,/A,,/ | !wedge!.G,,) z/ (D,,/B,,/A,,/ | !wedge!.G,,) z/ (D,,/B,,/G,,/) | %270
!ped! [B,,,B,,]3!ped-up! | [A,,,A,,]!ped! [E,=G,]/A,/^C,/A,/ | [E,G,]/A,/^C,/A,/[E,G,]/A,/ | %273
 ^C,/A,/[E,G,]/A,/C,/A,/ | [E,G,]/A,/^C,/A,/[E,G,]/A,/ | ^C,/A,/[E,G,]/A,/C,/A,/ | %276
 [E,G,]/A,/^C,/A,/[E,G,]/A,/!ped-up! |!ped! D,/A,/F,/A,/D,/A,/!ped-up! | %278
!ped! A,,/G,/E,/G,/A,,/G,/!ped-up! | [D,F,]/A,/!ped![E,G,]/A,/^C,/A,/ | %280
 [E,G,]/A,/^C,/A,/[E,G,]/A,/ | ^C,/A,/[E,G,]/A,/C,/A,/ | [E,G,]/A,/^C,/A,/[E,G,]/A,/ | %283
 ^C,/A,/[E,G,]/A,/C,/A,/ | [E,G,]/A,/^C,/A,/[E,G,]/A,/!ped-up! |!ped! D,/A,/F,/A,/D,/A,/!ped-up! | %286
!ped! A,,/G,/E,/G,/A,,/G,/!ped-up! |!ped! B,,/F,/D,/F,/B,,/F,/!ped-up! | %288
!ped! G,,/_E,/B,,/E,/G,,/E,/!ped-up! |!ped! A,,/F,/D,/F,/A,,/F,/!ped-up! | %290
!ped! G,,/=E,/A,,/E,/G,,/E,/!ped-up! | F,,/D,/E,,/D,/F,,/D,/ | G,,/[D,E,]/F,,/[D,E,]/G,,/[D,E,]/ | %293
 A,,/[D,F,]/^G,,/[D,F,]/A,,/[D,F,]/ | A,,/[E,=G,]/A,,/[D,F,]/A,,/[^C,E,]/ | %295
!ped! D,,/ F,/D,/F,/A,,/F,/ | D,,/ F,/D,/F,/A,,/F,/ | D,,/ F,/D,/F,/A,,/F,/ | %298
 D,,/ F,/D,/F,/A,,/F,/!ped-up! |!ped! A,,,/ F,/D,/F,/A,,/F,/!ped-up! | %300
!ped! A,,,/ G,/E,/G,/A,,/G,/!ped-up! |!ped! D,,/ F,/D,/F,/A,,/F,/ | D,,/ F,/D,/F,/A,,/F,/ | %303
 D,,/ F,/D,/F,/A,,/F,/ | D,,/ F,/D,/F,/A,,/F,/!ped-up! |!ped! A,,,/ F,/D,/F,/A,,/F,/!ped-up! | %306
!ped! A,,,/ G,/E,/G,/A,,/G,/!ped-up! | D,/ D/^C/D/=C/D/ | B,/D/A,/D/^G,/D/ | A,/D/E/A,/F/A,/ | %310
 G/A,/F/A,/E/A,/ | D,/ D/^C/D/=C/D/ | B,/D/A,/D/^G,/D/ | A,/D/E/A,/F/A,/ | G/A,/F/A,/E/A,/ | %315
 D,/D/^C/D/D,/D/ | ^C/D/D,/D/C/D/ | D,/D/^C/D/D,/D/ | ^C/D/D,/D/C/D/ |[K:treble] [^FA=c] z2 | %320
 z z2 | z3 | z3 |!ped! (F/A/c/) z/ z | (F/A/c/) z/ z | (F/A/c/) z/ z | (F/A/c/) z/ z!ped-up! | %327
[K:bass]!ped! (G,/B,/- [B,D]2)!ped-up! |!ped! (G,/B,/- [B,D]2)!ped-up! | %329
!ped! (G,/B,/- [B,D]2)!ped-up! |!ped! (G,/^C/- [CE]2)!ped-up! |[K:treble]!ped! (^G/=B/d/) z/ z | %332
 (^G/=B/d/) z/ z | (^G/=B/d/) z/ z | (^G/=B/d/) z/ z!ped-up! | %335
[K:bass]!ped! (A,/^C/- [CE]2)!ped-up! |!ped! (A,/^C/- [C^D]2)!ped-up! | %337
!ped! (A,/^C/- [CE]2)!ped-up! |!ped! (A,/^C/- [C^F]2)!ped-up! |!ped! (A,/^C/- [CG]2)!ped-up! | %340
!ped! (A,/^C/- [C^F]2)!ped-up! |!ped! (A,/^C/- [CG]2)!ped-up! |!ped! (A,/^C/- [C=F]2)!ped-up! | %343
!ped! (A,/^C/- [CE]2)!ped-up! |!ped! (A,/^C/- [C^D]2)!ped-up! |!ped! (A,/^C/- [CE]2)!ped-up! | %346
!ped! (A,/^C/- [C^F]2)!ped-up! |!ped! (A,/^C/- [CG]2) | (A,/^C/- [CG]2) |!pp! (A,/^C/- [CG]2) | %350
 A,/^C/E/ z/ z!ped-up! |!ff!!ped! D,/A,/D/F/ x | D,/A,/D/F/ x | D,/A,/D/F/ x!ped-up! | %354
!ped! A,,/A,/^C/E/ x | A,,/A,/^C/E/ x | A,,/A,/^C/E/ x | A,,/A,/^C/E/ x!ped-up! | %358
!ped! D,/A,/D/F/ x!ped-up! |!ped! (G,/D/- [DG]2)!ped-up! |!ped! (E,/B,/- [B,_E]2)!ped-up! | %361
!ped! (C,/A,/- [A,^C]2)!ped-up! |!ped! (D,/A,/- [A,D]2)!ped-up! |!ped! (A,,/F,/- [F,A,]2)!ped-up! | %364
!ped! A,,/E,/G,/A,/- [E,G,A,]!ped-up! |!ped! D,,/D,/F,/A,/ D | z3!ped-up! | %367
!ped! (G,/D/- [DG]2)!ped-up! |!ped! (E,/B,/- [B,_E]2)!ped-up! |!ped! (C,/A,/- [A,^C]2)!ped-up! | %370
!ped! (D,/A,/- [A,D]2)!ped-up! |!ped! (A,,/F,/- [F,A,]2)!ped-up! | %372
!ped! A,,/E,/G,/A,/- [E,G,A,]!ped-up! |!ped! D,/F,/A,/D/ z!ped-up! | z3 | %375
!ped! (A,,/F,/- [F,A,]2)!ped-up! |!ped! A,,/E,/G,/A,/- [E,G,A,]!ped-up! | %377
!ped! D,/F,/A,/D/ z!ped-up! | z3 |!ped! (A,,/F,/- [F,A,]2)!ped-up! | %380
!ped! A,,/E,/G,/A,/- [E,G,A,]!ped-up! |!ped! D,[K:treble] f2-!ped-up! | f/e/_e/d/^c/=c/ | %383
 (3=B/_B/A/(3^G/=G/^F/=F/4=E/4_E/4D/4 | x z x |[K:bass]!ped! D,/A,/D/F/!ped-up! x | %386
!ped! A,,/A,/^C/E/ x!ped-up! |!ped! D,/A,/D/F/ x!ped-up! |!ped! A,,/A,/^C/E/ x!ped-up! | %389
!ped! D,/A,/D/F/ x!ped-up! |!ped! A,,/A,/^C/E/ x!ped-up! |!ped! D,/A,/D/F/ x!ped-up! | %392
!ped! A,,/A,/^C/E/ x!ped-up! |!ped! D,/A,/D/F/ x!ped-up! | D,/A,/D/F/ x | D,/A,/D/F/ x | %396
 D,/A,/D/F/ x | D, z z | z z (3z/ A,,/F,,/ | D,, (1:2:1z/ |] %400
V:3
 x3/2 |: D,/ A,3/2- A, | D,/ A,3/2- A, | D,/ A,3/2- A, | A,,/ A,3/2- A, | A,,/ A,3/2- A, | %6
 A,,/ A,3/2- A, | A,,/ A,3/2- A, | D,/ A,3/2- A, | G,3 | _E,3 | ^C,3 | D,3 | A,,3 | A,,3 | x3 | %16
 x3 | G,3 | _E,3 | ^C,3 | D,3 | A,,3 | A,,3 | x3 | x3 | A,,3 | A,,3 | x3 | x3 | A,,3 | x3 | x3 | %32
 z/ (D,/F,/A,/ !wedge!.D) | z/ (D,/F,/A,/ !wedge!.D) | x3 | x3 | x3 | x3 | x3 | %39
 z/ (C,/E,/G,/ !wedge!.C) | z/ (C,/E,/G,/ !wedge!.C) | z/ (C,/E,/G,/ !wedge!.C) | x3 | x3 | x3 | %45
 x3 | x3 | x3 | x3 | x3 | x3 | x3 | x3 | x3 | x3 | x3 | x3 | x3 | x3 | x3 | x3 | x3 | x3 | x3 | %64
 x3 | x3 | x3 | x3 | x3 | x3 | x3 | x3 | x3 | x3 | x3 | x3 | x3 | x3 | x3 | x3 | x3 | x3 | x3 | %83
 x3 | x3 | x3 | x3 | x3 | x3 | x3 | x3 | x3 | x3 | x3 | x3 :|[K:treble] ^F3 | ^F3 | ^F3 | ^F3 | %99
[K:bass] G,,,3 | G,,3 |[K:treble] G,3 | x3 | ^G3 | ^G3 | ^G3 | ^G3 |[K:bass] A,,,3 | A,,3 | %109
[K:treble] A,3- | A,/[K:bass] x5/2 | x3 | x3 | x3 | x3 | x3 | x3 | x[K:treble] x2 | x3 | %119
[K:bass] x3 | x3 | x3 | x3 | x3 | x3 | x3 | x3 | x3 | x3 | x3 | x3 | x3 | x3 | x[K:treble] x2 | %134
 x3 |[K:bass] x3 | x3 | x3 | x3 | x3 | x3 | x3 | x3 | x3 | x3 | x3 | x3 | x3 | x3 | x3 | x3 | %151
 B,,/ F,3/2- F, | B,,/ F,3/2- F, | B,,/ F,3/2- F, | F,,/ F,3/2- F, | F,,/ F,3/2- F, | %156
 F,,/ F,3/2- F, | F,,/ F,3/2- F, | B,,/ F,3/2- F, | B,,/ F,3/2- F, | B,,/ F,3/2- F, | %161
 B,,/ _G,3/2- _G, | B,,/ _G,3/2- _G, | B,,/ =G,3/2- =G, | B,,/ G,3/2- =G, | B,,/ ^G,3/2- ^G, | %166
 B,,/ ^G,3/2- ^G, | B,,/ ^G,3/2- ^G, | B,,/ ^G,3/2- ^G, | A,,/ A,3/2- A, | D,/ A,3/2- A, | %171
 A,,/ A,3/2- A, | D,/ A,3/2- A, | A,,/ A,3/2- A, | G,3 | (^C,3 | D,3) | A,,/ A,3/2- A, | G,3 | %179
 (^C,3 | D,3) | x/[K:treble] D3/2- D | C3 |[K:bass] (^F,3 | G,3) | x/[K:treble] D3/2- D | C3 | %187
[K:bass] (^F,3 | G,3) | ^C,3 | D,3 | ^F,3 | G,3 | ^C,3 | D,3 | ^C,3 | D,3 | ^C,3 | D,3 | x3 | x3 | %201
 x3 | x3 | x3 | x3 | x3 | x3 | x3 | x3 | x3 | x3 | x3 | x3 | x3 | x3 | D,/ A,3/2- A, | %216
 D,/ A,3/2- A, | D,/ A,3/2- A, | A,,/ A,3/2- A, | A,,/ A,3/2- A, | A,,/ A,3/2- A, | %221
 A,,/ A,3/2- A, | D,/ A,3/2- A, | G,3 | _E,3 | ^C,3 | D,3 | A,,3 | A,,3 | x3 | x3 | G,3 | _E,3 | %233
 C,3 | A,,3 | B,,3 | _E,,3 | F,,3 | D,,3 | G,,3 | _E,,3 | F,,3 | x3 | x3 | x3 | x3 | x3 | x3 | x3 | %249
 x3 | x3 | x3 | x3 | x3 | x3 | x3 | x3 | x3 | x3 | x3 | x3 | x3 | x3 | x3 | x3 | x3 | x3 | x3 | %268
 x3 | x3 | x3 | x3 | x3 | x3 | x3 | x3 | x3 | x3 | x3 | x3 | x3 | x3 | x3 | x3 | x3 | x3 | x3 | %287
 x3 | x3 | x3 | x3 | x3 | x3 | x3 | x3 | x3 | x3 | x3 | x3 | x3 | x3 | x3 | x3 | x3 | x3 | x3 | %306
 x3 | x3 | x3 | x3 | x3 | x3 | x3 | x3 | x3 | x3 | x3 | x3 | x3 |[K:treble] x3 | x3 | x3 | x3 | %323
 ^F3 | ^F3 | ^F3 | ^F3 |[K:bass] G,3 | G,3 | G,3 | G,3 |[K:treble] ^G3 | ^G3 | ^G3 | ^G3 | %335
[K:bass] A,3 | A,3 | A,3 | A,3 | A,3 | A,3 | A,3 | A,3 | A,3 | A,3 | A,3 | A,3 | A,3 | A,3 | A,3 | %350
 A,3 | D,/ A,3/2- A, | D,/ A,3/2- A, | D,/ A,3/2- A, | A,,/ A,3/2- A, | A,,/ A,3/2- A, | %356
 A,,/ A,3/2- A, | A,,/ A,3/2- A, | D,/ A,3/2- A, | G,3 | _E,3 | ^C,3 | D,3 | A,,3 | A,,3 | x3 | %366
 x3 | G,3 | _E,3 | ^C,3 | D,3 | A,,3 | A,,3 | x3 | x3 | A,,3 | A,,3 | x3 | x3 | A,,3 | A,,3 | %381
 x[K:treble] x2 | x3 | x3 | !wedge!.A x !wedge!.A, |[K:bass] D,/ A,3/2- A, | A,,/ A,3/2- A, | %387
 D,/ A,3/2- A, | A,,/ A,3/2- A, | D,/ A,3/2- A, | A,,/ A,3/2- A, | D,/ A,3/2- A, | A,,/ A,3/2- A, | %393
 D,/ A,3/2- A, | D,/ A,3/2- A, | D,/ A,3/2- A, | D,/ A,3/2- A, | x3 | x3 | x2 |] %400
V:4
 x3/2 |: x3 | x3 | x3 | x3 | x3 | x3 | x3 | x3 | x3 | x3 | x3 | x3 | x3 | x/ E,3/2- E, | x3 | x3 | %17
 x3 | x3 | x3 | x3 | x3 | x/ E,3/2- E, | x3 | x3 | x3 | x/ E,3/2- E, | x3 | x3 | x3 | x3 | x3 | %32
 x3 | x3 | x3 | x3 | x3 | x3 | x3 | x3 | x3 | x3 | x3 | x3 | x3 | x3 | x3 | x3 | x3 | x3 | x3 | %51
 x3 | x3 | x3 | x3 | x3 | x3 | x3 | x3 | x3 | x3 | x3 | x3 | x3 | x3 | x3 | x3 | x3 | x3 | x3 | %70
 x3 | x3 | x3 | x3 | x3 | x3 | x3 | x3 | x3 | x3 | x3 | x3 | x3 | x3 | x3 | x3 | x3 | x3 | x3 | %89
 x3 | x3 | x3 | x3 | x3 | x3 :|[K:treble] x3 | x3 | x3 | x3 |[K:bass] x/ B,,,3/2- B,,, | %100
 x/ B,,3/2- B,, |[K:treble] x/ B,3/2- B, | x3 | x3 | x3 | x3 | x3 |[K:bass] x/ C,,3/2- C,, | %108
 x/ C,3/2- C, |[K:treble] x/ C3/2- C- | C/[K:bass] x5/2 | x3 | x3 | x3 | x3 | x3 | x3 | %117
 x[K:treble] x2 | x3 |[K:bass] x3 | x3 | x3 | x3 | x3 | x3 | x3 | x3 | x3 | x3 | x3 | x3 | x3 | %132
 x3 | x[K:treble] x2 | x3 |[K:bass] x3 | x3 | x3 | x3 | x3 | x3 | x3 | x3 | x3 | x3 | x3 | x3 | %147
 x3 | x3 | x3 | x3 | x3 | x3 | x3 | x3 | x3 | x3 | x3 | x3 | x3 | x3 | x3 | x3 | x3 | x3 | x3 | %166
 x3 | x3 | x3 | x3 | x3 | x3 | x3 | x3 | x3 | x3 | x3 | x3 | x3 | x3 | x3 | x/[K:treble] x/ ^F- F | %182
 x3 |[K:bass] x3 | x3 | x/[K:treble] x/ ^F- F | x3 |[K:bass] x3 | x3 | x3 | x3 | x3 | x3 | x3 | %194
 x3 | x3 | x3 | x3 | x3 | x3 | x3 | x3 | x3 | x3 | x3 | x3 | x3 | x3 | x3 | x3 | x3 | x3 | x3 | %213
 x3 | x3 | x3 | x3 | x3 | x3 | x3 | x3 | x3 | x3 | x3 | x3 | x3 | x3 | x3 | x/ E,3/2- E, | x3 | %230
 x3 | x3 | x3 | x3 | x3 | x3 | x3 | x3 | x3 | x3 | x3 | x3 | x3 | x3 | x3 | x3 | x3 | x3 | x3 | %249
 x3 | x3 | x3 | x3 | x3 | x3 | x3 | x3 | x3 | x3 | x3 | x3 | x3 | x3 | x3 | x3 | x3 | x3 | x3 | %268
 x3 | x3 | x3 | x3 | x3 | x3 | x3 | x3 | x3 | x3 | x3 | x3 | x3 | x3 | x3 | x3 | x3 | x3 | x3 | %287
 x3 | x3 | x3 | x3 | x3 | x3 | x3 | x3 | x3 | x3 | x3 | x3 | x3 | x3 | x3 | x3 | x3 | x3 | x3 | %306
 x3 | x3 | x3 | x3 | x3 | x3 | x3 | x3 | x3 | x3 | x3 | x3 | x3 |[K:treble] x3 | x3 | x3 | x3 | %323
 x3 | x3 | x3 | x3 |[K:bass] x3 | x3 | x3 | x3 |[K:treble] x3 | x3 | x3 | x3 |[K:bass] x3 | x3 | %337
 x3 | x3 | x3 | x3 | x3 | x3 | x3 | x3 | x3 | x3 | x3 | x3 | x3 | x3 | x3 | x3 | x3 | x3 | x3 | %356
 x3 | x3 | x3 | x3 | x3 | x3 | x3 | x3 | x/ E,3/2- x | x3 | x3 | x3 | x3 | x3 | x3 | x3 | %372
 x/ E,3/2- x | x3 | x3 | x3 | x/ E,3/2- x | x3 | x3 | x3 | x/ E,3/2- x | x[K:treble] x2 | x3 | x3 | %384
 x3 |[K:bass] x3 | x3 | x3 | x3 | x3 | x3 | x3 | x3 | x3 | x3 | x3 | x3 | x3 | x3 | x2 |] %400
V:5
 x3/2 |: x3 | x3 | x3 | x3 | x3 | x3 | x3 | x3 | x3 | x3 | x3 | x3 | x3 | x G,- G, | x3 | x3 | x3 | %18
 x3 | x3 | x3 | x3 | x G,- G, | x3 | x3 | x3 | x G,- G, | x3 | x3 | x3 | x3 | x3 | x3 | x3 | x3 | %35
 x3 | x3 | x3 | x3 | x3 | x3 | x3 | x3 | x3 | x3 | x3 | x3 | x3 | x3 | x3 | x3 | x3 | x3 | x3 | %54
 x3 | x3 | x3 | x3 | x3 | x3 | x3 | x3 | x3 | x3 | x3 | x3 | x3 | x3 | x3 | x3 | x3 | x3 | x3 | %73
 x3 | x3 | x3 | x3 | x3 | x3 | x3 | x3 | x3 | x3 | x3 | x3 | x3 | x3 | x3 | x3 | x3 | x3 | x3 | %92
 x3 | x3 | x3 :|[K:treble] x3 | x3 | x3 | x3 |[K:bass] x D,,- D,, | x D,- D, |[K:treble] x D- D | %102
 x3 | x3 | x3 | x3 | x3 |[K:bass] x E,,- E,, | x E,- E, |[K:treble] x E- E- | E/[K:bass] x5/2 | %111
 x3 | x3 | x3 | x3 | x3 | x3 | x[K:treble] x2 | x3 |[K:bass] x3 | x3 | x3 | x3 | x3 | x3 | x3 | %126
 x3 | x3 | x3 | x3 | x3 | x3 | x3 | x[K:treble] x2 | x3 |[K:bass] x3 | x3 | x3 | x3 | x3 | x3 | %141
 x3 | x3 | x3 | x3 | x3 | x3 | x3 | x3 | x3 | x3 | x3 | x3 | x3 | x3 | x3 | x3 | x3 | x3 | x3 | %160
 x3 | x3 | x3 | x3 | x3 | x3 | x3 | x3 | x3 | x3 | x3 | x3 | x3 | x ^C- C | x3 | x3 | x3 | %177
 x ^C- C | x3 | x3 | x3 | x/[K:treble] x5/2 | x3 |[K:bass] x3 | x3 | x/[K:treble] x5/2 | x3 | %187
[K:bass] x3 | x3 | x3 | x3 | x3 | x3 | x3 | x3 | x3 | x3 | x3 | x3 | x3 | x3 | x3 | x3 | x3 | x3 | %205
 x3 | x3 | x3 | x3 | x3 | x3 | x3 | x3 | x3 | x3 | x3 | x3 | x3 | x3 | x3 | x3 | x3 | x3 | x3 | %224
 x3 | x3 | x3 | x3 | x G,- G, | x3 | x3 | x3 | x3 | x3 | x3 | x3 | x3 | x3 | x3 | x3 | x3 | x3 | %242
 x3 | x3 | x3 | x3 | x3 | x3 | x3 | x3 | x3 | x3 | x3 | x3 | x3 | x3 | x3 | x3 | x3 | x3 | x3 | %261
 x3 | x3 | x3 | x3 | x3 | x3 | x3 | x3 | x3 | x3 | x3 | x3 | x3 | x3 | x3 | x3 | x3 | x3 | x3 | %280
 x3 | x3 | x3 | x3 | x3 | x3 | x3 | x3 | x3 | x3 | x3 | x3 | x3 | x3 | x3 | x3 | x3 | x3 | x3 | %299
 x3 | x3 | x3 | x3 | x3 | x3 | x3 | x3 | x3 | x3 | x3 | x3 | x3 | x3 | x3 | x3 | x3 | x3 | x3 | %318
 x3 |[K:treble] x3 | x3 | x3 | x3 | x3 | x3 | x3 | x3 |[K:bass] x3 | x3 | x3 | x3 |[K:treble] x3 | %332
 x3 | x3 | x3 |[K:bass] x3 | x3 | x3 | x3 | x3 | x3 | x3 | x3 | x3 | x3 | x3 | x3 | x3 | x3 | x3 | %350
 x3 | x3 | x3 | x3 | x3 | x3 | x3 | x3 | x3 | x3 | x3 | x3 | x3 | x3 | x G,- x | x3 | x3 | x3 | %368
 x3 | x3 | x3 | x3 | x G,- x | x3 | x3 | x3 | x G,- x | x3 | x3 | x3 | x G,- x | x[K:treble] x2 | %382
 x3 | x3 | x3 |[K:bass] x3 | x3 | x3 | x3 | x3 | x3 | x3 | x3 | x3 | x3 | x3 | x3 | x3 | x3 | x2 |] %400
V:6
 x3/2 |: x3 | x3 | x3 | x3 | x3 | x3 | x3 | x3 | x3 | x3 | x3 | x3 | x3 | x3 | x3 | x3 | x3 | x3 | %19
 x3 | x3 | x3 | x3 | x3 | x3 | x3 | x3 | x3 | x3 | x3 | x3 | x3 | x3 | x3 | x3 | x3 | x3 | x3 | %38
 x3 | x3 | x3 | x3 | x3 | z x/8 x/8 x7/4 | x/8 x7/4 x/8 x3/4 | x9/8 x/8 x7/4 | x/8 x7/4 x/8 x3/4 | %47
 x3 | x3 | x/8 x/8 x7/4 x | x3 | x3 | x3 | x3 | x3 | x3 | x3 | x3 | x3 | x3 | x3 | x3 | x3 | x3 | %64
 x3 | x3 | x3 | x3 | x3 | x3 | x3 | A3- | A=B^G | x3 | x3 | x3 | x3 | A3- | A=B^G | x3 | x3 | x3 | %82
 x3 | x3 | x3 | x3 | x3 | x3 | x3 | x3 | x3 | x3 | x3 | x3 | x3 :| x3 | x3 | x3 | x3 | %99
 x[K:bass] x2 | x[K:treble] x2 | x3 | x3 | x3 | x3 | x3 | x3 | x[K:bass] x2 | x[K:treble] x2 | x3 | %110
 x3 | x3 | x3 | x3 | x3 | x3 | x3 | x3 | x3 | x3 | x3 | x3 | x3 | x3 | x3 | x3 | x3 | x3 | x3 | %129
 x3 | x3 | x3 | x3 | x3 | x3 | x3 | x3 | x3 | x3 | x3 | x3 | x3 | x3 | x3 | x3 | x3 | x3 | x3 | %148
 x3 | x3 | x3 | x3 | x3 | x3 | x3 | x3 | x3 | x3 | x3 | x3 | x3 | x3 | x3 | x3 | x3 | x3 | x3 | %167
 x3 | x3 | z z/ (A/e/^c/ | f) z/ (A/f/d/ | e) z/ (A/e/^c/ | f) z/ (A/f/d/ | [^ce]) z/ (c/e/=g/ | %174
 !wedge!.B) x2 | x3 | x3 | x3 | x3 | x3 | x3 | x3 | x3 | x3 | x3 | x3 | x3 | x3 | x3 | x3 | x3 | %191
 x3 | x3 | x3 | x3 | x3 | x3 | x3 | x3 | x3 | x3 | x3 | x3 | x3 | x3 | x3 | x3 | x3 | x3 | x3 | %210
 x3 | x3 | x3 | x3 | x3 | x3 | x3 | x3 | x3 | x3 | x3 | x3 | x3 | x3 | x3 | x3 | x3 | x3 | x3 | %229
 x3 | x3 | x3 | x3 | x3 | x3 | x3 | x3 | x3 | x3 | x3 | x3 | x3 | x3 | x3 | x3 | x3 | x3 | x3 | %248
 x3 | x3 | x3 | x3 | x3 | x3 | x3 | x3 | x3 | x3 | x3 | x3 | x3 | x3 | x3 | x3 | x3 | x3 | x3 | %267
 x3 | x3 | x3 | x3 | x x/8 x/8 x7/4 | x/8 x/8 x7/4 x/8 x/8 x3/4 | x x/8 x/8 x7/4 | %274
 x/8 x/8 x7/4 x/8 x/8 x3/4 | x3 | x3 | x/8 x/8 x7/4 x | x3 | x3 | x3 | x3 | x3 | x3 | x3 | x3 | %286
 x3 | x3 | x3 | x3 | x3 | x3 | x3 | x3 | x3 | x3 | x3 | x3 | x3 | D3- | (DE)!wedge!.^C | x3 | x3 | %303
 x3 | x3 | D3- | (DE)!wedge!.^C | x3 | x d'd' | x3 | x3 | x3 | x3 | x3 | x3 | x3 | x3 | x3 | x3 | %319
 x3 | x3 | x3 | x3 | x3 | x3 | x3 | x3 | x3 | x3 | x3 | x3 | x3 | x3 | x3 | x3 | x3 | x3 | x3 | %338
 x3 | x3 | x3 | x3 | x3 | x3 | x3 | x3 | x3 | x3 | x3 | x3 | x2 a- | a z a- | a z a- | a z a- | %354
 a z a- | a z a- | a z a- | a z a- | a x2 | x3 | x3 | x3 | x3 | x3 | x3 | x3 | x3 | x3 | x3 | x3 | %370
 x3 | x3 | x3 | x3 | x3 | x3 | x3 | x3 | x3 | x3 | x3 | x3 | x3 | x3 | !wedge!.a x !wedge!.A | x3 | %386
 x3 | x3 | x3 | x3 | x3 | x3 | x3 | x3 | x3 | x3 | x3 | x3 | x3 | x2 |] %400

